dist/svg/share-o.svg

<svg width="16" height="16" viewBox="0 0 16 16" fill="rgb(34, 34, 34)" xmlns="http://www.w3.org/2000/svg"><title>share-o</title><path d="M12.5 9.99999C11.571 10.001 10.761 10.507 10.33 11.259L10.324 11.271L5.87299 9.28599C5.95399 9.05099 6.00099 8.77999 6.00099 8.49899C6.00099 8.15699 5.93199 7.83099 5.80699 7.53399L5.81299 7.54999L10.481 4.97099C10.941 5.59599 11.673 5.99599 12.499 5.99599C13.879 5.99599 14.998 4.87699 14.998 3.49699C14.998 2.11699 13.879 0.997986 12.499 0.997986C11.119 0.997986 9.99999 2.11699 9.99999 3.49699C9.99999 3.69599 10.023 3.88999 10.067 4.07599L10.064 4.05899L5.25199 6.71799C4.80099 6.27399 4.18099 5.99899 3.49799 5.99899C2.11699 5.99899 0.997986 7.11799 0.997986 8.49899C0.997986 9.87999 2.11699 10.999 3.49799 10.999C4.24199 10.999 4.90899 10.674 5.36699 10.159L5.36899 10.156L10.015 12.227C10.006 12.308 9.99999 12.403 9.99999 12.498C9.99999 13.879 11.119 14.998 12.5 14.998C13.881 14.998 15 13.879 15 12.498C15 11.117 13.881 9.99799 12.5 9.99799V9.99999ZM12.5 1.99999C13.328 1.99999 14 2.67199 14 3.49999C14 4.32799 13.328 4.99999 12.5 4.99999C11.672 4.99999 11 4.32799 11 3.49999C11.001 2.67199 11.672 2.00099 12.5 1.99999ZM3.49999 9.99999C2.67199 9.99999 1.99999 9.32799 1.99999 8.49999C1.99999 7.67199 2.67199 6.99999 3.49999 6.99999C4.32799 6.99999 4.99999 7.67199 4.99999 8.49999C4.99899 9.32799 4.32799 9.99899 3.49999 9.99999ZM12.5 14C11.672 14 11 13.328 11 12.5C11 11.672 11.672 11 12.5 11C13.328 11 14 11.672 14 12.5C13.999 13.328 13.328 13.999 12.5 14Z" fill="rgb(34, 34, 34)" fill-opacity="1.00"/></svg>

<!-- Generated by Trend Micro Style Portal -->
<svg version="1.1" xmlns="http://www.w3.org/2000/svg" width="16" height="16" viewBox="0 0 16 16">
  <title>share-o</title>
  <path fill="rgb(34,34,34)" d="M12.5 10c-0.929 0.001-1.739 0.507-2.17 1.259l-0.006 0.012-4.451-1.985c0.081-0.235 0.128-0.506 0.128-0.787 0-0.342-0.069-0.668-0.194-0.965l0.006 0.016 4.668-2.579c0.46 0.625 1.192 1.025 2.018 1.025 1.38 0 2.499-1.119 2.499-2.499s-1.119-2.499-2.499-2.499c-1.38 0-2.499 1.119-2.499 2.499 0 0.199 0.023 0.393 0.067 0.579l-0.003-0.017-4.812 2.659c-0.451-0.444-1.071-0.719-1.754-0.719-1.381 0-2.5 1.119-2.5 2.5s1.119 2.5 2.5 2.5c0.744 0 1.411-0.325 1.869-0.84l0.002-0.003 4.646 2.071c-0.009 0.081-0.015 0.176-0.015 0.271 0 1.381 1.119 2.5 2.5 2.5s2.5-1.119 2.5-2.5c0-1.381-1.119-2.5-2.5-2.5-0 0-0 0-0 0v0zM12.5 2c0.828 0 1.5 0.672 1.5 1.5s-0.672 1.5-1.5 1.5c-0.828 0-1.5-0.672-1.5-1.5v0c0.001-0.828 0.672-1.499 1.5-1.5h0zM3.5 10c-0.828 0-1.5-0.672-1.5-1.5s0.672-1.5 1.5-1.5c0.828 0 1.5 0.672 1.5 1.5v0c-0.001 0.828-0.672 1.499-1.5 1.5h-0zM12.5 14c-0.828 0-1.5-0.672-1.5-1.5s0.672-1.5 1.5-1.5c0.828 0 1.5 0.672 1.5 1.5v0c-0.001 0.828-0.672 1.499-1.5 1.5h-0z"></path>
</svg>
